assets/Ring/Flat/ring_flat.svg

<svg width="32" height="32" viewBox="0 0 32 32" fill="none" xmlns="http://www.w3.org/2000/svg">
<path d="M17.9119 2H13.2619C13.0519 2 12.8419 2.09001 12.7119 2.26001L10.8219 4.51999C10.6419 4.72999 10.6019 5.03 10.7219 5.28L12.7419 9.76001C12.8619 10.02 13.1119 10.19 13.4019 10.19H17.7919C18.0719 10.19 18.3319 10.02 18.4519 9.76001L20.4719 5.28C20.5819 5.03 20.5419 4.72999 20.3719 4.51999L18.4819 2.26001C18.3319 2.10001 18.1319 2 17.9119 2Z" fill="#00A6ED"/>
<path d="M20.5019 4.82999C20.4819 4.71999 20.4319 4.60999 20.3519 4.51999L18.4619 2.26001C18.3219 2.10001 18.1219 2 17.9119 2H13.2619C13.0519 2 12.8419 2.09001 12.7119 2.26001L10.8219 4.51999C10.7419 4.60999 10.6919 4.71999 10.6719 4.82999H20.5019Z" fill="#26EAFC"/>
<path d="M19.2119 8.53009V8.1001H11.9819V8.53009C11.9819 9.07009 11.6619 9.55008 11.1819 9.77008C7.3919 11.5101 4.8019 15.4201 5.0119 19.9001C5.2719 25.4601 9.8619 29.9101 15.4219 30.0001C21.3419 30.1001 26.1919 25.3001 26.1919 19.4001C26.1919 15.1301 23.6519 11.4401 20.0019 9.7601C19.5219 9.5401 19.2119 9.06009 19.2119 8.53009ZM15.5919 26.9301C11.4419 26.9301 8.0619 23.5501 8.0619 19.4001C8.0619 15.2501 11.4419 11.8701 15.5919 11.8701C19.7419 11.8701 23.1219 15.2501 23.1219 19.4001C23.1219 23.5501 19.7419 26.9301 15.5919 26.9301Z" fill="#B4ACBC"/>
</svg>

<svg xmlns="http://www.w3.org/2000/svg" width="32" height="32" fill="none"><path fill="#00A6ED" d="M17.912 2h-4.65c-.21 0-.42.09-.55.26l-1.89 2.26c-.18.21-.22.51-.1.76l2.02 4.48c.12.26.37.43.66.43h4.39c.28 0 .54-.17.66-.43l2.02-4.48c.11-.25.07-.55-.1-.76l-1.89-2.26a.782.782 0 0 0-.57-.26Z"/><path fill="#26EAFC" d="M20.502 4.83a.642.642 0 0 0-.15-.31l-1.89-2.26a.74.74 0 0 0-.55-.26h-4.65c-.21 0-.42.09-.55.26l-1.89 2.26c-.08.09-.13.2-.15.31h9.83Z"/><path fill="#B4ACBC" d="M19.212 8.53V8.1h-7.23v.43c0 .54-.32 1.02-.8 1.24-3.79 1.74-6.38 5.65-6.17 10.13.26 5.56 4.85 10.01 10.41 10.1 5.92.1 10.77-4.7 10.77-10.6 0-4.27-2.54-7.96-6.19-9.64-.48-.22-.79-.7-.79-1.23Zm-3.62 18.4c-4.15 0-7.53-3.38-7.53-7.53s3.38-7.53 7.53-7.53 7.53 3.38 7.53 7.53-3.38 7.53-7.53 7.53Z"/></svg>
